X:113
T:Old Joe's
R:jig
Z:Transcribed by Dave Marshall
M:6/8
K:D
|: f2A AFA | BAF A2A | BdB AFA | Bcd efg |
f2A AFA | BAF A2A | BdB AFA | Bdc d2e :|
|: ~f3 efe | dBA d2e | f2a afe | faa b2a |
~f3 efe | dBA d2e | f2A AFA | Bdc d2e :|
